icons/1_Primary/WazirX.svg

<svg width="1024" height="1024" fill="none" xmlns="http://www.w3.org/2000/svg"><g clip-path="url(#a)"><path d="M512 1024c282.77 0 512-229.23 512-512S794.77 0 512 0 0 229.23 0 512s229.23 512 512 512Z" fill="#728DBE"/><path d="M506.7 258.91a28.049 28.049 0 0 1 1.82-2.91c37.38 55.86 74.82 111.683 112.32 167.47A7171754.888 7171754.888 0 0 1 367 618.32c-23.25-.06-46.5 0-69.76 0 25.8-44.52 51.653-89.013 77.56-133.48C395.52 449.18 416.13 413.5 437 378l69.7-119.09ZM277.2 590.23c31.2-53.487 62.373-107.023 93.52-160.61l.54-1.25A37807.177 37807.177 0 0 1 256 347a300428.7 300428.7 0 0 1 21.2 243.23Zm467.6 29.93c7.747-88.947 15.48-177.9 23.2-266.86a794685.256 794685.256 0 0 0-347.34 266.87l324.14-.01Zm-468.2 86.06h467.76v-56.08H276.63c-.027 18.693-.04 37.39-.04 56.09l.01-.01Z" fill="#fff"/></g><defs><clipPath id="a"><path fill="#fff" d="M0 0h1024v1024H0z"/></clipPath></defs></svg>

<svg width="1024" height="1024" viewBox="0 0 1024 1024" fill="none" xmlns="http://www.w3.org/2000/svg">
<g clip-path="url(#clip0_2_3891)">
<path d="M512 1024C794.77 1024 1024 794.77 1024 512C1024 229.23 794.77 0 512 0C229.23 0 0 229.23 0 512C0 794.77 229.23 1024 512 1024Z" fill="#728DBE"/>
<path d="M506.7 258.91C507.247 257.904 507.854 256.932 508.52 256C545.9 311.86 583.34 367.683 620.84 423.47C536.227 488.423 451.613 553.373 367 618.32C343.75 618.26 320.5 618.32 297.24 618.32C323.04 573.8 348.893 529.307 374.8 484.84C395.52 449.18 416.13 413.5 437 378L506.7 258.91ZM277.2 590.23C308.4 536.743 339.573 483.207 370.72 429.62L371.26 428.37C332.787 401.317 294.367 374.193 256 347C263.1 428.08 270.167 509.157 277.2 590.23ZM744.8 620.16C752.547 531.213 760.28 442.26 768 353.3C652.193 442.227 536.413 531.183 420.66 620.17L744.8 620.16ZM276.6 706.22H744.36V650.14H276.63C276.603 668.833 276.59 687.53 276.59 706.23L276.6 706.22Z" fill="white"/>
</g>
<defs>
<clipPath id="clip0_2_3891">
<rect width="1024" height="1024" fill="white"/>
</clipPath>
</defs>
</svg>
